public/images/icons/anti-corruption.svg

<svg fill="none" height="32" viewBox="0 0 32 32" width="32" xmlns="http://www.w3.org/2000/svg" xmlns:xlink="http://www.w3.org/1999/xlink"><linearGradient id="a"><stop offset="0" stop-color="#4300d3"/><stop offset="1" stop-color="#4300d3" stop-opacity="0"/></linearGradient><linearGradient id="b" gradientUnits="userSpaceOnUse" x1="33.6168" x2="-3.85182" xlink:href="#a" y1="-5.74999" y2="2.33465"/><linearGradient id="c"><stop offset="0" stop-color="#ff0f13"/><stop offset="1" stop-color="#bf0020" stop-opacity="0"/></linearGradient><linearGradient id="d" gradientUnits="userSpaceOnUse" x1="-.308411" x2="34.2707" xlink:href="#c" y1=".999999" y2="9.38236"/><linearGradient id="e" gradientUnits="userSpaceOnUse" x1="28.457" x2="1.96254" xlink:href="#a" y1=".620315" y2="6.33705"/><linearGradient id="f" gradientUnits="userSpaceOnUse" x1="4.46812" x2="28.9194" xlink:href="#c" y1="5.39331" y2="11.3206"/><linearGradient id="g" gradientUnits="userSpaceOnUse" x1="26.0838" x2="4.50076" xlink:href="#a" y1="1.57504" y2="5.62261"/><linearGradient id="h" gradientUnits="userSpaceOnUse" x1="6.75452" x2="26.7276" xlink:href="#c" y1="6" y2="10.2081"/><linearGradient id="i" gradientUnits="userSpaceOnUse" x1="18.5884" x2="12.5742" xlink:href="#a" y1="13.2776" y2="14.1413"/><linearGradient id="j" gradientUnits="userSpaceOnUse" x1="13.2779" x2="18.8634" xlink:href="#c" y1="14.8651" y2="15.7663"/><linearGradient id="k" gradientUnits="userSpaceOnUse" x1="16.9195" x2="15.655" xlink:href="#a" y1="21.6537" y2="21.886"/><linearGradient id="l" gradientUnits="userSpaceOnUse" x1="15.7887" x2="16.9592" xlink:href="#c" y1="21.9181" y2="22.1596"/><linearGradient id="m" gradientUnits="userSpaceOnUse" x1="16.9195" x2="15.655" xlink:href="#a" y1="13.4275" y2="13.6598"/><linearGradient id="n" gradientUnits="userSpaceOnUse" x1="15.7887" x2="16.9592" xlink:href="#c" y1="13.6919" y2="13.9334"/><g stroke-linecap="round" stroke-linejoin="round" stroke-width="2"><g clip-rule="evenodd" fill-rule="evenodd"><path d="m16 31c8.2843 0 15-6.7157 15-15 0-8.28427-6.7157-15-15-15-8.28427 0-15 6.71573-15 15 0 8.2843 6.71573 15 15 15z" stroke="#5c00c7"/><path d="m16 31c8.2843 0 15-6.7157 15-15 0-8.28427-6.7157-15-15-15-8.28427 0-15 6.71573-15 15 0 8.2843 6.71573 15 15 15z" stroke="url(#b)" stroke-opacity=".25"/><path d="m16 31c8.2843 0 15-6.7157 15-15 0-8.28427-6.7157-15-15-15-8.28427 0-15 6.71573-15 15 0 8.2843 6.71573 15 15 15z" stroke="url(#d)" stroke-opacity=".15"/></g><path d="m5.39331 26.6066 21.21329-21.21329" stroke="#5c00c7"/><path d="m5.39331 26.6066 21.21329-21.21329" stroke="url(#e)" stroke-opacity=".25"/><path d="m5.39331 26.6066 21.21329-21.21329" stroke="url(#f)" stroke-opacity=".15"/><path d="m21.1633 25.6665c1.242-.9252 2.2083-2.1714 2.7949-3.6047s.7713-2.9994.5344-4.5299c-.237-1.5305-.8867-2.9674-1.8793-4.1562s-2.2906-2.0844-3.7542-2.5907l2.1116-3.61237c.0696-.1187.1063-.25383.1063-.39144s-.0367-.27273-.1063-.39144c-.0722-.11982-.1744-.21877-.2965-.28711s-.2599-.1037-.3998-.10262h-8.4555c-.1395-.00069-.2768.03487-.3985.10318-.1216.06832-.2234.16706-.2955.28655-.0696.11871-.1063.25383-.1063.39144s.0367.27274.1063.39144l2.1116 3.61237c-1.672.5781-3.1226 1.6622-4.15057 3.102-1.02795 1.4398-1.58223 3.1639-1.58593 4.933" stroke="#5c00c7"/><path d="m21.1633 25.6665c1.242-.9252 2.2083-2.1714 2.7949-3.6047s.7713-2.9994.5344-4.5299c-.237-1.5305-.8867-2.9674-1.8793-4.1562s-2.2906-2.0844-3.7542-2.5907l2.1116-3.61237c.0696-.1187.1063-.25383.1063-.39144s-.0367-.27273-.1063-.39144c-.0722-.11982-.1744-.21877-.2965-.28711s-.2599-.1037-.3998-.10262h-8.4555c-.1395-.00069-.2768.03487-.3985.10318-.1216.06832-.2234.16706-.2955.28655-.0696.11871-.1063.25383-.1063.39144s.0367.27274.1063.39144l2.1116 3.61237c-1.672.5781-3.1226 1.6622-4.15057 3.102-1.02795 1.4398-1.58223 3.1639-1.58593 4.933" stroke="url(#g)" stroke-opacity=".25"/><path d="m21.1633 25.6665c1.242-.9252 2.2083-2.1714 2.7949-3.6047s.7713-2.9994.5344-4.5299c-.237-1.5305-.8867-2.9674-1.8793-4.1562s-2.2906-2.0844-3.7542-2.5907l2.1116-3.61237c.0696-.1187.1063-.25383.1063-.39144s-.0367-.27273-.1063-.39144c-.0722-.11982-.1744-.21877-.2965-.28711s-.2599-.1037-.3998-.10262h-8.4555c-.1395-.00069-.2768.03487-.3985.10318-.1216.06832-.2234.16706-.2955.28655-.0696.11871-.1063.25383-.1063.39144s.0367.27274.1063.39144l2.1116 3.61237c-1.672.5781-3.1226 1.6622-4.15057 3.102-1.02795 1.4398-1.58223 3.1639-1.58593 4.933" stroke="url(#h)" stroke-opacity=".15"/><path d="m13.7106 20.9217c.2468.3241.5681.584.9366.7575.3686.1736.7736.2558 1.1807.2396 1.2979 0 2.3509-.7897 2.3509-1.7629s-1.053-1.7618-2.3509-1.7618c-1.298 0-2.3452-.7897-2.3452-1.764s1.0529-1.7629 2.3497-1.7629c.4071-.0165.8122.0655 1.1809.2391.3686.1736.6898.4336.9364.758" stroke="#5c00c7"/><path d="m13.7106 20.9217c.2468.3241.5681.584.9366.7575.3686.1736.7736.2558 1.1807.2396 1.2979 0 2.3509-.7897 2.3509-1.7629s-1.053-1.7618-2.3509-1.7618c-1.298 0-2.3452-.7897-2.3452-1.764s1.0529-1.7629 2.3497-1.7629c.4071-.0165.8122.0655 1.1809.2391.3686.1736.6898.4336.9364.758" stroke="url(#i)" stroke-opacity=".25"/><path d="m13.7106 20.9217c.2468.3241.5681.584.9366.7575.3686.1736.7736.2558 1.1807.2396 1.2979 0 2.3509-.7897 2.3509-1.7629s-1.053-1.7618-2.3509-1.7618c-1.298 0-2.3452-.7897-2.3452-1.764s1.0529-1.7629 2.3497-1.7629c.4071-.0165.8122.0655 1.1809.2391.3686.1736.6898.4336.9364.758" stroke="url(#j)" stroke-opacity=".15"/><path d="m15.8323 21.9181v1.1749" stroke="#5c00c7"/><path d="m15.8323 21.9181v1.1749" stroke="url(#k)" stroke-opacity=".25"/><path d="m15.8323 21.9181v1.1749" stroke="url(#l)" stroke-opacity=".15"/><path d="m15.8323 13.6919v1.1749" stroke="#5c00c7"/><path d="m15.8323 13.6919v1.1749" stroke="url(#m)" stroke-opacity=".25"/><path d="m15.8323 13.6919v1.1749" stroke="url(#n)" stroke-opacity=".15"/></g></svg>

<svg width="32" height="32" viewBox="0 0 32 32" fill="none" xmlns="http://www.w3.org/2000/svg">
<path fill-rule="evenodd" clip-rule="evenodd" d="M16 31C24.2843 31 31 24.2843 31 16C31 7.71573 24.2843 1 16 1C7.71573 1 1 7.71573 1 16C1 24.2843 7.71573 31 16 31Z" stroke="#5C00C7" stroke-width="2" stroke-linecap="round" stroke-linejoin="round"/>
<path fill-rule="evenodd" clip-rule="evenodd" d="M16 31C24.2843 31 31 24.2843 31 16C31 7.71573 24.2843 1 16 1C7.71573 1 1 7.71573 1 16C1 24.2843 7.71573 31 16 31Z" stroke="url(#paint0_linear)" stroke-opacity="0.25" stroke-width="2" stroke-linecap="round" stroke-linejoin="round"/>
<path fill-rule="evenodd" clip-rule="evenodd" d="M16 31C24.2843 31 31 24.2843 31 16C31 7.71573 24.2843 1 16 1C7.71573 1 1 7.71573 1 16C1 24.2843 7.71573 31 16 31Z" stroke="url(#paint1_linear)" stroke-opacity="0.15" stroke-width="2" stroke-linecap="round" stroke-linejoin="round"/>
<path d="M5.39331 26.6066L26.6066 5.39331" stroke="#5C00C7" stroke-width="2" stroke-linecap="round" stroke-linejoin="round"/>
<path d="M5.39331 26.6066L26.6066 5.39331" stroke="url(#paint2_linear)" stroke-opacity="0.25" stroke-width="2" stroke-linecap="round" stroke-linejoin="round"/>
<path d="M5.39331 26.6066L26.6066 5.39331" stroke="url(#paint3_linear)" stroke-opacity="0.15" stroke-width="2" stroke-linecap="round" stroke-linejoin="round"/>
<path d="M21.1633 25.6665C22.4053 24.7413 23.3716 23.4951 23.9582 22.0618C24.5448 20.6285 24.7295 19.0624 24.4926 17.5319C24.2556 16.0014 23.6059 14.5645 22.6133 13.3757C21.6207 12.1869 20.3227 11.2913 18.8591 10.785L20.9707 7.17263C21.0403 7.05393 21.077 6.9188 21.077 6.78119C21.077 6.64358 21.0403 6.50846 20.9707 6.38975C20.8985 6.26993 20.7963 6.17098 20.6742 6.10264C20.5521 6.0343 20.4143 5.99894 20.2744 6.00002H11.8189C11.6794 5.99933 11.5421 6.03489 11.4204 6.1032C11.2988 6.17152 11.197 6.27026 11.1249 6.38975C11.0553 6.50846 11.0186 6.64358 11.0186 6.78119C11.0186 6.9188 11.0553 7.05393 11.1249 7.17263L13.2365 10.785C11.5645 11.3631 10.1139 12.4472 9.08593 13.887C8.05798 15.3268 7.5037 17.0509 7.5 18.82" stroke="#5C00C7" stroke-width="2" stroke-linecap="round" stroke-linejoin="round"/>
<path d="M21.1633 25.6665C22.4053 24.7413 23.3716 23.4951 23.9582 22.0618C24.5448 20.6285 24.7295 19.0624 24.4926 17.5319C24.2556 16.0014 23.6059 14.5645 22.6133 13.3757C21.6207 12.1869 20.3227 11.2913 18.8591 10.785L20.9707 7.17263C21.0403 7.05393 21.077 6.9188 21.077 6.78119C21.077 6.64358 21.0403 6.50846 20.9707 6.38975C20.8985 6.26993 20.7963 6.17098 20.6742 6.10264C20.5521 6.0343 20.4143 5.99894 20.2744 6.00002H11.8189C11.6794 5.99933 11.5421 6.03489 11.4204 6.1032C11.2988 6.17152 11.197 6.27026 11.1249 6.38975C11.0553 6.50846 11.0186 6.64358 11.0186 6.78119C11.0186 6.9188 11.0553 7.05393 11.1249 7.17263L13.2365 10.785C11.5645 11.3631 10.1139 12.4472 9.08593 13.887C8.05798 15.3268 7.5037 17.0509 7.5 18.82" stroke="url(#paint4_linear)" stroke-opacity="0.25" stroke-width="2" stroke-linecap="round" stroke-linejoin="round"/>
<path d="M21.1633 25.6665C22.4053 24.7413 23.3716 23.4951 23.9582 22.0618C24.5448 20.6285 24.7295 19.0624 24.4926 17.5319C24.2556 16.0014 23.6059 14.5645 22.6133 13.3757C21.6207 12.1869 20.3227 11.2913 18.8591 10.785L20.9707 7.17263C21.0403 7.05393 21.077 6.9188 21.077 6.78119C21.077 6.64358 21.0403 6.50846 20.9707 6.38975C20.8985 6.26993 20.7963 6.17098 20.6742 6.10264C20.5521 6.0343 20.4143 5.99894 20.2744 6.00002H11.8189C11.6794 5.99933 11.5421 6.03489 11.4204 6.1032C11.2988 6.17152 11.197 6.27026 11.1249 6.38975C11.0553 6.50846 11.0186 6.64358 11.0186 6.78119C11.0186 6.9188 11.0553 7.05393 11.1249 7.17263L13.2365 10.785C11.5645 11.3631 10.1139 12.4472 9.08593 13.887C8.05798 15.3268 7.5037 17.0509 7.5 18.82" stroke="url(#paint5_linear)" stroke-opacity="0.15" stroke-width="2" stroke-linecap="round" stroke-linejoin="round"/>
<path d="M13.7106 20.9217C13.9574 21.2458 14.2787 21.5057 14.6472 21.6792C15.0158 21.8528 15.4208 21.935 15.8279 21.9188C17.1258 21.9188 18.1788 21.1291 18.1788 20.1559C18.1788 19.1827 17.1258 18.3941 15.8279 18.3941C14.5299 18.3941 13.4827 17.6044 13.4827 16.6301C13.4827 15.6558 14.5356 14.8672 15.8324 14.8672C16.2395 14.8507 16.6446 14.9327 17.0133 15.1063C17.3819 15.2799 17.7031 15.5399 17.9497 15.8643" stroke="#5C00C7" stroke-width="2" stroke-linecap="round" stroke-linejoin="round"/>
<path d="M13.7106 20.9217C13.9574 21.2458 14.2787 21.5057 14.6472 21.6792C15.0158 21.8528 15.4208 21.935 15.8279 21.9188C17.1258 21.9188 18.1788 21.1291 18.1788 20.1559C18.1788 19.1827 17.1258 18.3941 15.8279 18.3941C14.5299 18.3941 13.4827 17.6044 13.4827 16.6301C13.4827 15.6558 14.5356 14.8672 15.8324 14.8672C16.2395 14.8507 16.6446 14.9327 17.0133 15.1063C17.3819 15.2799 17.7031 15.5399 17.9497 15.8643" stroke="url(#paint6_linear)" stroke-opacity="0.25" stroke-width="2" stroke-linecap="round" stroke-linejoin="round"/>
<path d="M13.7106 20.9217C13.9574 21.2458 14.2787 21.5057 14.6472 21.6792C15.0158 21.8528 15.4208 21.935 15.8279 21.9188C17.1258 21.9188 18.1788 21.1291 18.1788 20.1559C18.1788 19.1827 17.1258 18.3941 15.8279 18.3941C14.5299 18.3941 13.4827 17.6044 13.4827 16.6301C13.4827 15.6558 14.5356 14.8672 15.8324 14.8672C16.2395 14.8507 16.6446 14.9327 17.0133 15.1063C17.3819 15.2799 17.7031 15.5399 17.9497 15.8643" stroke="url(#paint7_linear)" stroke-opacity="0.15" stroke-width="2" stroke-linecap="round" stroke-linejoin="round"/>
<path d="M15.8323 21.9181V23.093" stroke="#5C00C7" stroke-width="2" stroke-linecap="round" stroke-linejoin="round"/>
<path d="M15.8323 21.9181V23.093" stroke="url(#paint8_linear)" stroke-opacity="0.25" stroke-width="2" stroke-linecap="round" stroke-linejoin="round"/>
<path d="M15.8323 21.9181V23.093" stroke="url(#paint9_linear)" stroke-opacity="0.15" stroke-width="2" stroke-linecap="round" stroke-linejoin="round"/>
<path d="M15.8323 13.6919V14.8668" stroke="#5C00C7" stroke-width="2" stroke-linecap="round" stroke-linejoin="round"/>
<path d="M15.8323 13.6919V14.8668" stroke="url(#paint10_linear)" stroke-opacity="0.25" stroke-width="2" stroke-linecap="round" stroke-linejoin="round"/>
<path d="M15.8323 13.6919V14.8668" stroke="url(#paint11_linear)" stroke-opacity="0.15" stroke-width="2" stroke-linecap="round" stroke-linejoin="round"/>
<defs>
<linearGradient id="paint0_linear" x1="33.6168" y1="-5.74999" x2="-3.85182" y2="2.33465" gradientUnits="userSpaceOnUse">
<stop stop-color="#4300D3"/>
<stop offset="1" stop-color="#4300D3" stop-opacity="0"/>
</linearGradient>
<linearGradient id="paint1_linear" x1="-0.308411" y1="0.999999" x2="34.2707" y2="9.38236" gradientUnits="userSpaceOnUse">
<stop stop-color="#FF0F13"/>
<stop offset="1" stop-color="#BF0020" stop-opacity="0"/>
</linearGradient>
<linearGradient id="paint2_linear" x1="28.457" y1="0.620315" x2="1.96254" y2="6.33705" gradientUnits="userSpaceOnUse">
<stop stop-color="#4300D3"/>
<stop offset="1" stop-color="#4300D3" stop-opacity="0"/>
</linearGradient>
<linearGradient id="paint3_linear" x1="4.46812" y1="5.39331" x2="28.9194" y2="11.3206" gradientUnits="userSpaceOnUse">
<stop stop-color="#FF0F13"/>
<stop offset="1" stop-color="#BF0020" stop-opacity="0"/>
</linearGradient>
<linearGradient id="paint4_linear" x1="26.0838" y1="1.57504" x2="4.50076" y2="5.62261" gradientUnits="userSpaceOnUse">
<stop stop-color="#4300D3"/>
<stop offset="1" stop-color="#4300D3" stop-opacity="0"/>
</linearGradient>
<linearGradient id="paint5_linear" x1="6.75452" y1="6" x2="26.7276" y2="10.2081" gradientUnits="userSpaceOnUse">
<stop stop-color="#FF0F13"/>
<stop offset="1" stop-color="#BF0020" stop-opacity="0"/>
</linearGradient>
<linearGradient id="paint6_linear" x1="18.5884" y1="13.2776" x2="12.5742" y2="14.1413" gradientUnits="userSpaceOnUse">
<stop stop-color="#4300D3"/>
<stop offset="1" stop-color="#4300D3" stop-opacity="0"/>
</linearGradient>
<linearGradient id="paint7_linear" x1="13.2779" y1="14.8651" x2="18.8634" y2="15.7663" gradientUnits="userSpaceOnUse">
<stop stop-color="#FF0F13"/>
<stop offset="1" stop-color="#BF0020" stop-opacity="0"/>
</linearGradient>
<linearGradient id="paint8_linear" x1="16.9195" y1="21.6537" x2="15.655" y2="21.886" gradientUnits="userSpaceOnUse">
<stop stop-color="#4300D3"/>
<stop offset="1" stop-color="#4300D3" stop-opacity="0"/>
</linearGradient>
<linearGradient id="paint9_linear" x1="15.7887" y1="21.9181" x2="16.9592" y2="22.1596" gradientUnits="userSpaceOnUse">
<stop stop-color="#FF0F13"/>
<stop offset="1" stop-color="#BF0020" stop-opacity="0"/>
</linearGradient>
<linearGradient id="paint10_linear" x1="16.9195" y1="13.4275" x2="15.655" y2="13.6598" gradientUnits="userSpaceOnUse">
<stop stop-color="#4300D3"/>
<stop offset="1" stop-color="#4300D3" stop-opacity="0"/>
</linearGradient>
<linearGradient id="paint11_linear" x1="15.7887" y1="13.6919" x2="16.9592" y2="13.9334" gradientUnits="userSpaceOnUse">
<stop stop-color="#FF0F13"/>
<stop offset="1" stop-color="#BF0020" stop-opacity="0"/>
</linearGradient>
</defs>
</svg>
